X:21
T:Bourre de Nasbinals
R:Bourre  3 temps
O:France
A:Auvergne
C:Trad.
M:3/4
L:1/8
Q:3/4=78
K:C
g3 a g2|f2 d2 g2|ed c2 d2|e2 d4|g3 a g2|f2 d2 g2|ed c2 d2|c4c2 :|:
G2 c2 d2|e2 d2 f2|ed c2 d2|e2 d4|G2 c2 d2|e2 d2 f2|ed c2 d2|c4c2:|
%%footer $D   Galouvielle-MBe 2007 \nBourre  3 temps (France)
